X: 1
T: Ride A Mile
M: 9/8
L: 1/8
R: slip jig
K: Gmaj
dBG G2A G2e|dBG GB/c/d gfe|dBG G2A G2E|F2G A z B cBA:|
def g3 fed|g2B B2A B2A|def g z g fed|e2A A2B cBA|
def g z g fed|g2B B2A B2A|def g z g fed|e2A A2a afe||
BAB g2B g2B|BAB g2B b2B|BAB g2B g2B|A2A z2B cBA|
BAB g2B g2B|BAB g2B b2g|a z f e2f g2e||
